Sources/FrostedUI/Resources/Icons.xcassets/pictureInPicture20.imageset/picture-in-picture-20.svg

<svg width="20" height="20" viewBox="0 0 20 20" fill="none" xmlns="http://www.w3.org/2000/svg" data-fui-icon="true">
  <path
    d="M14.0625 2.0625C16.5478 2.0625 18.5625 4.07722 18.5625 6.5625V13.4375C18.5625 15.9228 16.5478 17.9375 14.0625 17.9375H5.9375C3.45222 17.9375 1.4375 15.9228 1.4375 13.4375V6.5625C1.4375 4.07722 3.45222 2.0625 5.9375 2.0625H14.0625ZM11.5625 10.75C11.1138 10.75 10.75 11.1138 10.75 11.5625V16.4375H14.0625C15.7194 16.4375 17.0625 15.0944 17.0625 13.4375V10.75H11.5625ZM5.9375 3.5625C4.28065 3.5625 2.9375 4.90565 2.9375 6.5625V13.4375C2.9375 15.0944 4.28065 16.4375 5.9375 16.4375H9.25V11.5625C9.25 10.2853 10.2853 9.25 11.5625 9.25H17.0625V6.5625C17.0625 4.90565 15.7194 3.5625 14.0625 3.5625H5.9375Z"
    fill="currentColor"
  />
</svg>

<svg xmlns="http://www.w3.org/2000/svg" width="20" height="20" fill="none" data-fui-icon="true" viewBox="0 0 20 20"><path fill="currentColor" d="M14.063 2.063a4.5 4.5 0 0 1 4.5 4.5v6.875a4.5 4.5 0 0 1-4.5 4.5H5.937a4.5 4.5 0 0 1-4.5-4.5V6.562a4.5 4.5 0 0 1 4.5-4.5zm-2.5 8.687a.813.813 0 0 0-.813.813v4.874h3.313a3 3 0 0 0 3-3V10.75zM5.937 3.563a3 3 0 0 0-3 3v6.875a3 3 0 0 0 3 3H9.25v-4.875a2.31 2.31 0 0 1 2.313-2.313h5.5V6.563a3 3 0 0 0-3-3z"/></svg>
